X:1
T:Dnia każdego
T:Dnia każdego
T:Omni die dic Mariae - Hymn św. Kazimierza
T:Grzegorz Gerwazy Gorczycki (1665-1734) 
T:sł: Św. Bernard z Cluny (1100-1140) tł: Stanisław Grochowski (1524 -1612) (Miod.)
C:Grzegorz Gerwazy Gorczycki
Z:Św. Bernard z Cluni
%%score [ 1 2 3 4 ]
L:1/8
Q:1/2=120
M:3/2
K:A
V:1 treble nm="Soprano" snm="S."
V:2 treble nm="Alto" snm="A."
V:3 treble-8 nm="Tenor" snm="T."
V:4 bass nm="Bass" snm="B."
V:1
 F8 G4 | A8 A4 | G8 F4 | F8 ^E4 | A8 F4 | B8 A4 | A8 G4 | A12 | A8 A4 | A8 G4 | G4 F8 | c8 c4 | %12
w: 1. Dnia  każ-|de- go|Bo- ga|me- go|Mat- kę,|du- szo,|wy- sła-|wiaj.|Jej dni|świę- te,|spra- wy|wzię- te,|
 c6 B2 A4 | d4 c6 B2 | A12 ||[M:4/4][Q:1/4=170] F2 A2 F2 A2 || G2 F2 G2 F2 | A2 G2 A2 B2 | %18
w: Z na- bo- żeń-|stwem  od- pra-|wiaj!|Roz- pa- truj   się|a dzi- wuj   się|Jej wy- so- kiej|
 G3 G F4 | F2 B2 B2 ^A2 | A2 d2 d2 c2 | d2 d2 B2 B2 | A3 A A4 | c2 c2 B2 A2 | A2 G2 A4 |] %25
w: za- cno- ści,|Zwij   ją wie- lką|Ro- dzi- ciel- ką,|Bło- gą Pan- ną|w czy- sto- ści.|Bło- gą Pan- ną|w czy- sto- ści.|
V:2
 C8 E4 | E8 E4 | E8 C4 | C8 C4 | E8 F4 | F8 C4 | E8 E4 | C12 | E8 E4 | E8 E4 | C8 F4 | F8 ^E4 | %12
w: 1. Dnia każ-|de- go|Bo- ga|me- go|Mat- kę,|du- szo,|wy- sła-|wiaj.|Jej dni|świę- te|spra- wy|wzię- te,|
 F6 G2 A4 | (G2 F2) F4 ^E4 | F12 ||[M:4/4] F2 E2 F2 E2 || E2 B,2 E2 ^D2 | C2 ^E2 C2 F2 | %18
w: Z na- bo- żeń-|stwem * od- pra-|wiaj!|Roz- pa- truj się|a dzi- wuj się|Jej wy- so- kiej|
 F2 ^E2 F4 | F2 F2 F2 F2 | F2 F2 F2 E2 | F2 F2 D2 =G2 | E3 E F4 | E2 E2 F2 FE | E3 E E4 |] %25
w: za- cno- ści,|Zwij ją wie- lką|Ro- dzi- ciel- ką,|Bło- gą Pan- ną|w czy- sto- ści.|Bło- gą Pan- ną *|w czy- sto- ści.|
V:3
 A8 B4 | c8 c4 | B8 A4 | G8 G4 | c8 A4 | d8 c4- | c4 B6 B2 | A12 | c8 c4 | B8 B4 | A8 A4 | G8 G4 | %12
w: 1. Dnia każ-|de- go|Bo- ga|me- go|Mat- kę,|du- szo|* wy- sła-|wiaj.|Jej dni|świę- te|spra- wy|wzię- te,|
 A6 B2 c4 | (B2 A2) G6 G2 | F12 ||[M:4/4] A2 A2 A2 A2 || B2 B2 B2 B2 | c2 c2 c2 d2 | c3 c c4 | %19
w: Z na- bo- żeń-|stwem * od- pra-|wiaj!|Roz- pa- truj się|a dzi- wuj się|Jej wy- so- kiej|za- cno- ści,|
 d2 d2 c2 c2 | d2 d2 A2 A2 | A2 A2 Bc d2 | d2 c2 d4 | A2 e2 d2 dc | B3 B c4 |] %25
w: Zwij ją wie- lką|Ro- dzi- ciel- ką,|Bło- gą Pan- * ną|w czy- sto- ści.|Bło- gą Pan- ną *|w czy- sto- ści.|
V:4
 F,8 E,4 | A,8 A,4 | E,8 F,4 | C,8 C,4 | A,,8 D,4 | B,,8 C,4 | (C,2 D,2 E,4) E,,4 | A,,12 | %8
w: 1. Dnia każ-|de- go|Bo- ga|me- go|Mat- kę,|du- szo|wy- * * sła-|wiaj.|
 A,8 A,4 | E,8 E,4 | F,8 F,4 | C,8 C,4 | F,6 F,2 F,4 | B,,4 C,6 C,2 | F,,12 || %15
w: Jej dni|świę- te|spra- wy|wzię- te,|Z na- bo- żeń-|stwem od- pra-|wiaj!|
[M:4/4] D,2 C,2 D,2 A,,2 || E,2 ^D,2 E,2 B,,2 | F,2 ^E,2 F,2 B,,2 | C,3 C, F,,4 | %19
w: Roz- pa- truj się|a dzi- wuj się|Jej wy- so- kiej|za- cno- ści,|
 B,,C, D,E, F,2 F,2 | %20
w: Zwij * ją * wie- lką|
"_2. Sław jej czyny, proś by winy\nLitościwie znieść chciała,\nWeźmij onę na obronę,\nBy cię z grzechów wyrwała.\n\nTa Dziewica nam użycza\nZ nieba dobra wiecznego,\nZ tą Królową światłość nową\nWziął świat z daru Bożego" D,"_3. Usta moje, sławcie boje\nTej niewiasty pieśniami,\nPrzez Jej męstwo, my zwycięstwo\nOdnosim nad czartami.\n\nNie ustajcie, wysławiajcie\nWszego świata Królową.\nJej przymioty, łaski, cnoty, \nchwalcie myślą i mową."E, F,=G,"_4. Zmysły moje, głosy swoje \nAż po niebo podajcie.\nPamięć Onej, tak wsławionej\nŚwiętej Panny uznajcie.\n\nAcz prawdziwie nikt nie żywie \nTak szczęśliwy wymową,\nBy słodkimi śpiewy swymi \nGodnie uczcił Królową." A,2 A,,2 | %21
w: Ro- * dzi- * ciel- ką,|
 D,2 F,2 =G,2 G,2 | A,2 A,,2 D,4 | C,2 C,2 D,2 D,2 | E,2 E,,2 A,,4 |] %25
w: Bło- gą Pan- ną|w czy- sto- ści.|Bło- gą Pan- ną|w czy- sto- ści.|

